Papirus/64x64/apps/bitwarden.svg

<?xml version="1.0" encoding="UTF-8" standalone="no"?>
<svg
   id="_图层_1"
   version="1.1"
   viewBox="0 0 64 64" width="64" height="64"
   sodipodi:docname="bitwarden.svg"
   xml:space="preserve"
   inkscape:version="1.4 (e7c3feb100, 2024-10-09)"
   xmlns:inkscape="http://www.inkscape.org/namespaces/inkscape"
   xmlns:sodipodi="http://sodipodi.sourceforge.net/DTD/sodipodi-0.dtd"
   xmlns="http://www.w3.org/2000/svg"
   xmlns:svg="http://www.w3.org/2000/svg"><sodipodi:namedview
     id="namedview26"
     pagecolor="#505050"
     bordercolor="#eeeeee"
     borderopacity="1"
     inkscape:showpageshadow="0"
     inkscape:pageopacity="0"
     inkscape:pagecheckerboard="0"
     inkscape:deskcolor="#505050"
     inkscape:zoom="10.6875"
     inkscape:cx="32"
     inkscape:cy="28.912281"
     inkscape:window-width="1920"
     inkscape:window-height="939"
     inkscape:window-x="0"
     inkscape:window-y="34"
     inkscape:window-maximized="1"
     inkscape:current-layer="_图层_1" /><!-- Generator: Adobe Illustrator 29.0.1, SVG Export Plug-In . SVG Version: 2.1.0 Build 192)  --><defs
     id="defs6"><style
       id="style1">
      .st0 {
        fill-opacity: .5;
      }

      .st0, .st1, .st2, .st3, .st4, .st5, .st6, .st7 {
        fill: #fff;
      }

      .st8 {
        fill: #133c9a;
      }

      .st2, .st9 {
        display: none;
      }

      .st3 {
        fill-opacity: .2;
      }

      .st4 {
        fill-opacity: .9;
      }

      .st10 {
        fill: #3370ff;
      }

      .st11 {
        fill: url(#_未命名的渐变_3);
      }

      .st12 {
        fill: url(#_未命名的渐变);
      }

      .st5 {
        fill-opacity: .3;
      }

      .st6 {
        fill-opacity: 0;
      }

      .st7 {
        fill-opacity: .7;
      }

      .st13 {
        fill: #00d6b9;
      }

      .st14 {
        fill: url(#_未命名的渐变_2);
      }
    </style><radialGradient
       id="_未命名的渐变"
       data-name="未命名的渐变"
       cx="123.9"
       cy="-40.2"
       fx="123.9"
       fy="-40.2"
       r="59.4"
       gradientTransform="translate(-26.8 25.5) scale(.6 -.7)"
       gradientUnits="userSpaceOnUse"><stop
         offset="0"
         stop-color="#db202e"
         id="stop1" /><stop
         offset="1"
         stop-color="#e01b24"
         id="stop2" /></radialGradient><radialGradient
       id="_未命名的渐变_2"
       data-name="未命名的渐变 2"
       cx="67.6"
       cy="26.8"
       fx="67.6"
       fy="26.8"
       r="105.2"
       gradientTransform="translate(-26.6 25.3) scale(.6 -.7)"
       gradientUnits="userSpaceOnUse"><stop
         offset="0"
         stop-color="#ffb648"
         id="stop3" /><stop
         offset="1"
         stop-color="#ff7800"
         stop-opacity="0"
         id="stop4" /></radialGradient><radialGradient
       id="_未命名的渐变_3"
       data-name="未命名的渐变 3"
       cx="61.7"
       cy="18.6"
       fx="61.7"
       fy="18.6"
       r="68"
       gradientTransform="translate(-26.8 25.8) scale(.6 -.7)"
       gradientUnits="userSpaceOnUse"><stop
         offset="0"
         stop-color="#c64600"
         id="stop5" /><stop
         offset="1"
         stop-color="#a51d2d"
         id="stop6" /></radialGradient><style
       id="style1-2">
      .st0, .st1, .st2, .st3, .st4, .st5 {
        isolation: isolate;
      }

      .st0, .st1, .st6, .st7, .st5, .st8 {
        display: none;
      }

      .st0, .st3, .st4, .st5 {
        opacity: .2;
      }

      .st1 {
        opacity: .1;
      }

      .st1, .st9, .st2, .st4, .st5 {
        fill: #fff;
      }

      .st10 {
        fill: #3f3f3f;
      }

      .st2 {
        opacity: .3;
      }

      .st6 {
        fill: #505d6e;
      }

      .st11, .st8 {
        fill: #ffcca3;
      }

      .st12 {
        fill: #fed24c;
      }

      .st13 {
        fill: #c2352a;
      }
    </style></defs><path
     class="st1"
     d="M 47.5,64.1 H 13.8 C 6.2,64.1 0,57.8 0,50.3 V 13.7 C 0,6.2 6.2,0 13.7,0 H 50.3 C 57.8,0 64,6.2 64,13.7 V 50.3 C 64,57.8 57.8,64 50.3,64 h -2.9 0.1 z"
     id="path6"
     style="display:inline;opacity:1;fill:#175ddc;fill-opacity:1" /><g
     id="g27"
     transform="matrix(1.1032466,0,0,1.1014967,-3.2103247,-3.3366537)"><path
       style="opacity:0.2"
       d="M 32,14 C 32,14 16.21,14.009 15.809,14.25 14.957,14.761 15,14.128 15,26.035 c 0,12.083 -0.015,11.841 0.914,14.184 1.069,2.695 2.791,4.973 5.617,7.449 2.372,2.077 5.184,3.958 8.321,5.555 1.061,0.54 1.609,0.786 2.148,0.777 0.539,0.009 1.087,-0.237 2.148,-0.777 3.137,-1.597 5.949,-3.478 8.321,-5.555 2.826,-2.476 4.548,-4.754 5.617,-7.449 C 49.015,37.876 49,38.118 49,26.035 49,14.128 49.043,14.761 48.191,14.25 47.79,14.009 32,14 32,14 Z m 0,6 h 11 v 16 c 0,0 -0.006,0.781 -0.492,2.008 -0.683,1.721 -1.63,3.08 -3.992,5.148 -1.793,1.57 -4.053,3.024 -6.516,4.336 z"
       id="path3" /><path
       style="fill:#efefef"
       d="M 32,13 C 32,13 16.21,13.009 15.809,13.25 14.957,13.761 15,13.128 15,25.035 c 0,12.083 -0.015,11.841 0.914,14.184 1.069,2.695 2.791,4.973 5.617,7.449 2.372,2.077 5.184,3.958 8.321,5.555 1.061,0.54 1.609,0.786 2.148,0.777 0.539,0.009 1.087,-0.237 2.148,-0.777 3.137,-1.597 5.949,-3.478 8.321,-5.555 2.826,-2.476 4.548,-4.754 5.617,-7.449 C 49.015,36.876 49,37.118 49,25.035 49,13.128 49.043,13.761 48.191,13.25 47.79,13.009 32,13 32,13 Z m 0,6 h 11 v 16 c 0,0 -0.006,0.781 -0.492,2.008 -0.683,1.721 -1.63,3.08 -3.992,5.148 -1.793,1.57 -4.053,3.024 -6.516,4.336 z"
       id="path4" /></g></svg>

<svg xmlns="http://www.w3.org/2000/svg" width="64" height="64" version="1">
 <rect style="opacity:0.2" width="58" height="58" x="-62" y="-61" rx="2.9" ry="2.9" transform="matrix(0,-1,-1,0,0,0)"/>
 <rect style="fill:#175ddc" width="58" height="58" x="-61" y="-61" rx="2.9" ry="2.9" transform="matrix(0,-1,-1,0,0,0)"/>
 <path style="opacity:0.1;fill:#ffffff" d="M 5.8984375 3 C 4.2918373 3 3 4.2918373 3 5.8984375 L 3 6.8984375 C 3 5.2918373 4.2918373 4 5.8984375 4 L 58.101562 4 C 59.708163 4 61 5.2918373 61 6.8984375 L 61 5.8984375 C 61 4.2918373 59.708163 3 58.101562 3 L 5.8984375 3 z"/>
 <path style="opacity:0.2" d="M 32,14 C 32,14 16.21,14.009 15.809,14.25 14.957,14.761 15,14.128 15,26.035 15,38.118 14.985,37.876 15.914,40.219 16.983,42.914 18.705,45.192 21.531,47.668 23.903,49.745 26.715,51.626 29.852,53.223 30.913,53.763 31.461,54.009 32,54 32.539,54.009 33.087,53.763 34.148,53.223 37.285,51.626 40.097,49.745 42.469,47.668 45.295,45.192 47.017,42.914 48.086,40.219 49.015,37.876 49,38.118 49,26.035 49,14.128 49.043,14.761 48.191,14.25 47.79,14.009 32,14 32,14 Z M 32,20 H 43 V 36 C 43,36 42.994,36.781 42.508,38.008 41.825,39.729 40.878,41.088 38.516,43.156 36.723,44.726 34.463,46.18 32,47.492 Z"/>
 <path style="fill:#efefef" d="M 32,13 C 32,13 16.21,13.009 15.809,13.25 14.957,13.761 15,13.128 15,25.035 15,37.118 14.985,36.876 15.914,39.219 16.983,41.914 18.705,44.192 21.531,46.668 23.903,48.745 26.715,50.626 29.852,52.223 30.913,52.763 31.461,53.009 32,53 32.539,53.009 33.087,52.763 34.148,52.223 37.285,50.626 40.097,48.745 42.469,46.668 45.295,44.192 47.017,41.914 48.086,39.219 49.015,36.876 49,37.118 49,25.035 49,13.128 49.043,13.761 48.191,13.25 47.79,13.009 32,13 32,13 Z M 32,19 H 43 V 35 C 43,35 42.994,35.781 42.508,37.008 41.825,38.729 40.878,40.088 38.516,42.156 36.723,43.726 34.463,45.18 32,46.492 Z"/>
</svg>
